X: 10893
Q: "In the style of a March."
M: C|
L: 1/8
K: Bb
[|\
c>d c>d c2 F2 | d>e d>e d2 c>d | eeed g2f2 | G2 e>d {d}c2 c2 |\
f>=e f>g a2 g>f | f2 f>a b>d e>f | Hg4 z2cc | (ef/g/) fe d2 c>B |\


